X:1
T:Marching Through Georgia
T:Arranged by human-potato hybrid
T:John Philip Sousa
%%score { 1 | 2 }
L:1/8
Q:1/4=120
M:2/4
K:Bb
V:1 treble nm="Piano" snm="Pno."
V:2 bass 
V:1
!pp!"^Allegretto; Bright And Energetic (120 BPM)" z z z2 | z4 | D>C B,C | DF F([Fd] | %4
 [Ff]3) ([Fd] | [Ff]3) z | D>C B,C | DF FF | .B,(E DC) |"^dim." .!^!B,2 .D2 | .B,2 .D2 | .B,2 .D2 | %12
 [B,DF]4 | [B,D]>[A,C] B,>[A,C] | [B,D][B,F] [B,F][B,F] | [E-G]>[E-A] [E-B]>[Ec] | [DB]4 | %17
 [B,-D]>[B,-E] .[B,-F][B,F] | [EG]>[E-F] .[E-G][EB] | ([Ac]>B) [Ac]>[Bd] | [Ac]4 | BB [Ac][Bd] | %22
 [Ge][EG] [EG][E_G] | [DF][DF] [FB]>[Ac] | [Bd]4 | [F,C]2 [F,C]>[F,C] | [F,C]2 [F,D]>[F,C] | %27
 [F,B,]4 | z z z!mf! [Bd] |: !>![df]3 [Bd] | !>![df]3 d | [FB]>[FA] [GB]G | [FB]3 [Bd] | %33
 !>![df]3 [Bd] | !>![df]3 [Bd] | [F-c]>[F-B] [F-c]>[Fd] | [Fc]4 | BB cd | eG GG | FF [FB]>[Ac] | %40
 [Bd]4 | c2 c>c | c2 d>c |"^Opt. Repeat" B4 |1 !^![Bb] z z [Bd] :|2 !^![Bb] z z2 || B4- | B4- | %48
 B4- | B4- | B4- | B4- | B4 |!<(! [Acf]3 [Bd]!<)! |!ff! !>![FBdf]3 [Bd] | !>![FBdf]3 d | %56
 [FB]>[FA] [GB]G | [FB]3 [dbd'] | !>![fbd'f']3 [dbd'] | !>![fbd'f']3 [Bd] | %60
 [F-Ac]>[F-B] [F-Ac]>[FBd] | [FAc]4 | BB [Ac][Bd] | [Ge][EG] [EG][EG] | [DF][DF] [FB]>[Ac] | %65
 [Bd]4 | [ce]2 [ce]>[ce] | [ce]2 [df]>[ce] | !tenuto![Bdfb]{a}.b{g} .a{f}.g | %69
{e} .f!p!{d}.e{c} .d{B}.c | !5!f4- |"^clear and bright" f3 d/c/ | BB B/c/d/e/ | ff fd | gg g>f | %75
 g>f g/a/b/c'/ | d'3 d'/c'/ | b3 b/g/ | f3 f/d/ | B3 d/c/ | [FB][FB] B/c/d/e/ | [df][df] [df][Bd] | %82
 [eg][eg] [eg]>[df] | [eg]>[df] [eg]/a/b/c'/ | [bd']3 d'/c'/ | [fb]3 b/g/ | [cf]3 f/g/ | [Acf]4 | %88
!pp! Bd cB | G B2 G | B4- | B7/2 f/ | fd b>d | d c3- | c4- | c4"^gliss" | z d' c'b | ag fe | %98
 d>c B>c | dF FF | G>A B>c | B4 | D>E FF | G>F GB | c>=B c>d | c4 | BB cd | eG GG | FF B>c | d4 | %110
 c2 c>c | c2 d>c | !~(!B4 | !~)!G4 | d>c B>c | dF FF | G>A B>c | B4 | DF FF | G>A B>c | B4- | B4 | %122
 z4 | z4 | .B2 z2 |] z4 | z4 |] %127
V:2
 .!tenuto!B,,.!tenuto!F, .!tenuto!F,,.!tenuto!F, | %1
 .!tenuto!B,,.!tenuto!F, .!tenuto!F,,.!tenuto!F, | %2
 .!tenuto!B,,.!tenuto!F, .!tenuto!F,,.!tenuto!F, | %3
 .!tenuto!B,,.!tenuto!F, .!tenuto!F,,.!tenuto!F, | %4
 .!tenuto!B,,.!tenuto!F, .!tenuto!F,,.!tenuto!F, | %5
 .!tenuto!B,,.!tenuto!F, .!tenuto!F,,.!tenuto!F, | %6
 .!tenuto!B,,.!tenuto!F, .!tenuto!F,,.!tenuto!F, | %7
 .!tenuto!B,,.!tenuto!F, .!tenuto!F,,.!tenuto!F, | %8
 .!tenuto!B,,.!tenuto!F, .!tenuto!F,,.!tenuto!F, | %9
 .!tenuto!B,,.!tenuto!F, .!tenuto!F,,.!tenuto!F, | %10
 .!tenuto!B,,.!tenuto!F, .!tenuto!F,,.!tenuto!F, | %11
 .!tenuto!B,,.!tenuto!F, .!tenuto!F,,.!tenuto!F, | %12
 .!tenuto!B,,.!tenuto!F, .!tenuto!F,,!pp!.!tenuto!F, | %13
 .!tenuto!B,,.!tenuto!F, .!tenuto!F,,.!tenuto!F, | %14
 .!tenuto!B,,.!tenuto!F, .!tenuto!F,,.!tenuto!F, | .!tenuto!E,.!tenuto!B, .!tenuto!B,,.!tenuto!B, | %16
 .!tenuto!B,,.!tenuto!F, .!tenuto!F,,.!tenuto!F, | %17
 .!tenuto!B,,.!tenuto!F, .!tenuto!F,,.!tenuto!F, | .!tenuto!E,.!tenuto!B, .!tenuto!B,,.!tenuto!B, | %19
 .!tenuto!C,.!tenuto!F, .!tenuto!F,,.!tenuto!F, | .!tenuto!C,.!tenuto!F, .!tenuto!F,,.!tenuto!F, | %21
 .!tenuto!B,,.!tenuto!F, .!tenuto!F,,.!tenuto!F, | .!tenuto!E,.!tenuto!B, .!tenuto!B,,.!tenuto!B, | %23
 .!tenuto!B,,.!tenuto!F, .!tenuto!F,,.!tenuto!F, | %24
 .!tenuto!B,,.!tenuto!F, .!tenuto!F,,.!tenuto!F, | .!tenuto!C,.!tenuto!F, .!tenuto!F,,.!tenuto!F, | %26
 .!tenuto!C,.!tenuto!F, .!tenuto!F,,.!tenuto!F, | .!tenuto!B,,F,!<(! F,,F,,!<)! | %28
 [F,,F,][F,,F,] [F,,F,]B, |:"^-" !>![B,,B,]3 B,- | !>![B,,B,]3 [D,B,] | [F,B,]2 [B,,B,]2 | %32
 [B,,B,]3 B, | !>![B,,B,]3 B, | !>![B,,B,]3 B, | [C,A,]2 [C,A,]2 | [C,A,]4 | %37
 .!tenuto!B,,.!tenuto!F, .!tenuto!F,,.!tenuto!F, | .!tenuto!E,.!tenuto!B, .!tenuto!B,,.!tenuto!B, | %39
 .!tenuto!B,,.!tenuto!F, .!tenuto!F,,.!tenuto!F, | %40
 .!tenuto!B,,.!tenuto!F, .!tenuto!F,,.!tenuto!F, | .!tenuto!C,.!tenuto!F, .!tenuto!F,,.!tenuto!F, | %42
 .!tenuto!C,.!tenuto!F, .!tenuto!F,,.!tenuto!F, | [B,,F,B,]2 [B,,E,B,]2 |1 %44
 [B,,F,B,][F,,F,] [F,,F,]B, :|2 !^![B,,F,B,] z z D, || F,/B,F,/ B,D, | F,/B,F,/ B,D, | %48
 B,,B,, B,,/A,,/B,,/C,/ | D,2 z D, | F,/B,F,/ B,D, | F,/B,F,/ B,D, | C,C, C,/B,,/C,/D,/ | C,3 B, | %54
 !>![B,,F,B,]3 B,- | !>![B,,F,B,]3 [D,B,] | [B,,F,B,]2 [B,,G,B,]2 | [B,,F,B,]3 B, | %58
 !>![B,,F,B,]3 B, | !>![B,,F,B,]3 B, | [C,F,C]2 [C,F,C]2 | [F,,C,F,]4 | %62
 .!tenuto!B,,.!tenuto!F, .!tenuto!F,,.!tenuto!F, | .!tenuto!E,.!tenuto!B, .!tenuto!B,,.!tenuto!B, | %64
 .!tenuto!B,,.!tenuto!F, .!tenuto!F,,.!tenuto!F, | %65
 .!tenuto!B,,.!tenuto!F, .!tenuto!F,,.!tenuto!F, | .!tenuto!C,.!tenuto!F, .!tenuto!F,,.!tenuto!F, | %67
 .!tenuto!C,.!tenuto!F, .!tenuto!F,,.!tenuto!F, | [B,,D,F,B,]3 z | z4 | F,2 C,2 | [F,,F,]4 | %72
 .B,, z .B,, z | .B,, z .B,, z | .E, z .E, z | .E, z .E, z | .B,, z .B,, z | .B,, z .B,, z | %78
 .F, z .F, z | B,,4 |!f! !>![B,,D,F,]2 z2 | !>![B,,D,F,]2 z2 | !>![B,,E,G,]2 !>![B,,E,G,]2 | %83
 !>![B,,E,G,]2 z2 | !>![B,,D,F,]2 z2 | !>![B,,D,F,]2 z2 | !>![E,F,A,C]2 !>![E,F,A,C]2 | %87
 .F,.E, .D,.C, | B,, z F, z | G,, z B,, z | B,,B,, B,,/C,/D,/E,/ | F,F, F,2- | F,4- | F,4 | %94
 F,,F,, F,,/G,,/A,,/B,,/ | C,C, !-(!C,2 | !-)!B,,,2 z2 | z4 | B,,2 F,2 | F,,2 F,2 | %100
!<(! ([E,G,]4!<)! |!>(! [D,F,]4)!>)! | B,,2 F,2 | E,,2 B,,2 | [A,C]4 | .C.B, .A,.F, | B,,2 F,2 | %107
 E,,2 B,,2 | B,,2 F,2 | F,4 | C,2 F,,2 | C,2 F,,2 | B,,4 | G,,4 | B,,2 F,2 | F,,2 F,2 | [E,G,]4 | %117
 D,4- | D,4 | [E,G,]4 | B,,2 F,2 | F,,2 F,2 | .B,,2 z2 | .F,2 z2 | .[B,,B,]2 z2 |] z4 | z4 |] %127

